packages/components/src/components/icon/wallet/ic-wallet-platforms.svg

<svg width="16" height="16" viewBox="0 0 16 16" fill="none" xmlns="http://www.w3.org/2000/svg">
<path d="M16 8.00006C16 7.44006 15.66 6.94006 15.1 6.70006L13.8 6.13006L15.11 5.56006C15.66 5.32006 16.01 4.82006 16.01 4.26006C16.01 3.70006 15.67 3.20006 15.11 2.96006L8.69 0.140059C8.25 -0.0499414 7.75 -0.0499414 7.32 0.140059L0.9 2.95006C0.34 3.19006 0 3.69006 0 4.25006C0 4.81006 0.34 5.31006 0.9 5.55006L2.2 6.13006L0.9 6.70006C0.34 6.94006 0 7.44006 0 8.00006C0 8.56006 0.34 9.06006 0.9 9.30006L2.2 9.87006L0.9 10.4501C0.34 10.6901 0 11.1901 0 11.7501C0 12.3101 0.34 12.8101 0.9 13.0501L7.32 15.8601C7.53 15.9501 7.77 16.0001 8 16.0001C8.23 16.0001 8.47 15.9501 8.69 15.8601L15.11 13.0501C15.66 12.8101 16.01 12.3101 16.01 11.7501C16.01 11.1901 15.67 10.6901 15.11 10.4501L13.8 9.87006L15.1 9.30006C15.66 9.06006 16 8.56006 16 8.00006ZM0.94 4.25006C0.94 4.07006 1.06 3.90006 1.27 3.81006L7.69 1.00006C7.88 0.920059 8.12 0.920059 8.31 1.00006L14.73 3.81006C14.94 3.90006 15.06 4.07006 15.06 4.25006C15.06 4.43006 14.94 4.60006 14.73 4.69006L8.31 7.50006C8.12 7.58006 7.88 7.58006 7.69 7.50006L1.27 4.69006C1.07 4.60006 0.94 4.44006 0.94 4.25006ZM14.73 11.3101C14.94 11.4001 15.06 11.5701 15.06 11.7501C15.06 11.9301 14.94 12.1001 14.73 12.1901L8.31 15.0001C8.12 15.0801 7.88 15.0901 7.69 15.0001L1.27 12.1901C1.06 12.1001 0.94 11.9301 0.94 11.7501C0.94 11.5701 1.06 11.4001 1.27 11.3101L3.37 10.3901L7.31 12.1101C7.53 12.2101 7.76 12.2501 8 12.2501C8.23 12.2501 8.47 12.2001 8.69 12.1101L12.63 10.3901L14.73 11.3101ZM14.73 8.44006L8.31 11.2501C8.12 11.3301 7.89 11.3301 7.69 11.2501L1.28 8.44006C1.07 8.35006 0.94 8.19006 0.94 8.00006C0.94 7.82006 1.06 7.65006 1.27 7.56006L3.37 6.64006L7.31 8.36006C7.53 8.46006 7.77 8.51006 8 8.51006C8.23 8.51006 8.47 8.46006 8.69 8.37006L12.63 6.65006L14.73 7.57006C14.94 7.66006 15.06 7.83006 15.06 8.01006C15.06 8.19006 14.93 8.35006 14.73 8.44006Z" fill="#333333"/>
</svg>

<svg width="16" height="16" fill="none" xmlns="http://www.w3.org/2000/svg"><path d="M16 8c0-.56-.34-1.06-.9-1.3l-1.3-.57 1.31-.57c.55-.24.9-.74.9-1.3s-.34-1.06-.9-1.3L8.69.14c-.44-.19-.94-.19-1.37 0L.9 2.95c-.56.24-.9.74-.9 1.3s.34 1.06.9 1.3l1.3.58-1.3.57C.34 6.94 0 7.44 0 8s.34 1.06.9 1.3l1.3.57-1.3.58c-.56.24-.9.74-.9 1.3s.34 1.06.9 1.3l6.42 2.81c.21.09.45.14.68.14.23 0 .47-.05.69-.14l6.42-2.81c.55-.24.9-.74.9-1.3s-.34-1.06-.9-1.3l-1.31-.58 1.3-.57c.56-.24.9-.74.9-1.3zM.94 4.25c0-.18.12-.35.33-.44L7.69 1a.83.83 0 01.62 0l6.42 2.81c.21.09.33.26.33.44s-.12.35-.33.44L8.31 7.5a.83.83 0 01-.62 0L1.27 4.69c-.2-.09-.33-.25-.33-.44zm13.79 7.06c.21.09.33.26.33.44s-.12.35-.33.44L8.31 15c-.19.08-.43.09-.62 0l-6.42-2.81c-.21-.09-.33-.26-.33-.44s.12-.35.33-.44l2.1-.92 3.94 1.72c.22.1.45.14.69.14.23 0 .47-.05.69-.14l3.94-1.72 2.1.92zm0-2.87l-6.42 2.81a.83.83 0 01-.62 0L1.28 8.44C1.07 8.35.94 8.19.94 8c0-.18.12-.35.33-.44l2.1-.92 3.94 1.72c.22.1.46.15.69.15.23 0 .47-.05.69-.14l3.94-1.72 2.1.92c.21.09.33.26.33.44s-.13.34-.33.43z" fill="#333"/></svg>
